X: 16747
T: Hare In The Corn, The
R: jig
M: 6/8
K: Dmajor
F2A AFA|BdB AFE|F2E EDE|F2D D3|
F2A AFA|BdB AFA|Bcd ecA|1 d3 d3:|2 d3 d2e||
f2f fed|g2e ede|faf fed|aga bag|
fef fed|g2e edA|Bcd ecA|1 d3 d2e:|2 d3 d3||

